src/lib/packages/icons/src/assets/line/dollar-receive-square.svg

<svg width="24" height="24" viewBox="0 0 24 24" fill="none" xmlns="http://www.w3.org/2000/svg">
<path d="M21 9.25C20.586 9.25 20.25 9.586 20.25 10V17.62C20.25 19.439 19.439 20.25 17.62 20.25H6.38C4.537 20.25 3.75 19.463 3.75 17.62V6.37C3.75 4.534 4.537 3.75 6.38 3.75H14C14.414 3.75 14.75 3.414 14.75 3C14.75 2.586 14.414 2.25 14 2.25H6.38C3.717 2.25 2.25 3.713 2.25 6.37V17.62C2.25 20.283 3.717 21.75 6.38 21.75H17.62C20.283 21.75 21.75 20.283 21.75 17.62V10C21.75 9.586 21.414 9.25 21 9.25ZM18.47 7.53003C18.539 7.59903 18.622 7.65402 18.714 7.69202C18.806 7.73002 18.903 7.75 19.001 7.75C19.099 7.75 19.196 7.73002 19.288 7.69202C19.38 7.65402 19.463 7.59903 19.532 7.53003L21.532 5.53003C21.825 5.23703 21.825 4.76199 21.532 4.46899C21.239 4.17599 20.764 4.17599 20.471 4.46899L19.751 5.18896V2C19.751 1.586 19.415 1.25 19.001 1.25C18.587 1.25 18.251 1.586 18.251 2V5.18896L17.531 4.46899C17.238 4.17599 16.763 4.17599 16.47 4.46899C16.177 4.76199 16.177 5.23703 16.47 5.53003L18.47 7.53003ZM11.65 8.86096H12.35C12.922 8.86096 13.401 9.29096 13.466 9.86096C13.512 10.273 13.881 10.5729 14.295 10.5229C14.707 10.4769 15.003 10.106 14.957 9.69397C14.822 8.49197 13.892 7.565 12.728 7.396V7C12.728 6.586 12.392 6.25 11.978 6.25C11.564 6.25 11.228 6.586 11.228 7V7.40405C9.983 7.60805 9.028 8.68203 9.028 9.98303C9.028 10.57 9.225 11.144 9.58 11.592C9.936 12.051 10.444 12.383 11.014 12.527L12.622 12.926C13.123 13.053 13.473 13.501 13.473 14.015C13.473 14.313 13.356 14.594 13.143 14.807C12.93 15.02 12.649 15.137 12.351 15.137H11.651C11.079 15.137 10.6 14.707 10.535 14.137C10.489 13.725 10.116 13.423 9.70599 13.475C9.29399 13.521 8.99801 13.892 9.04401 14.304C9.17701 15.491 10.085 16.412 11.228 16.597V17C11.228 17.414 11.564 17.75 11.978 17.75C12.392 17.75 12.728 17.414 12.728 17V16.6021C13.283 16.5211 13.798 16.275 14.203 15.87C14.699 15.374 14.973 14.716 14.973 14.017C14.973 12.815 14.158 11.769 12.987 11.473L11.379 11.074C11.131 11.012 10.92 10.873 10.761 10.67C10.611 10.48 10.528 10.236 10.528 9.98499C10.528 9.36499 11.031 8.86096 11.65 8.86096Z" fill="currentColor"/>
</svg>

<svg xmlns="http://www.w3.org/2000/svg" width="24" height="24" fill="none"><path fill="currentColor" d="M21 9.25a.75.75 0 0 0-.75.75v7.62c0 1.819-.811 2.63-2.63 2.63H6.38c-1.843 0-2.63-.787-2.63-2.63V6.37c0-1.836.787-2.62 2.63-2.62H14a.75.75 0 0 0 0-1.5H6.38c-2.663 0-4.13 1.463-4.13 4.12v11.25c0 2.663 1.467 4.13 4.13 4.13h11.24c2.663 0 4.13-1.467 4.13-4.13V10a.75.75 0 0 0-.75-.75Zm-2.53-1.72a.749.749 0 0 0 .818.162.749.749 0 0 0 .244-.162l2-2a.75.75 0 0 0-1.061-1.061l-.72.72V2a.75.75 0 0 0-1.5 0v3.189l-.72-.72A.75.75 0 1 0 16.47 5.53l2 2Zm-6.82 1.331h.7c.572 0 1.051.43 1.116 1a.75.75 0 1 0 1.491-.167 2.617 2.617 0 0 0-2.229-2.298V7a.75.75 0 0 0-1.5 0v.404a2.62 2.62 0 0 0-2.2 2.579c0 .587.197 1.161.552 1.609.356.459.864.791 1.434.935l1.608.399c.501.127.851.575.851 1.089 0 .298-.117.579-.33.792-.213.213-.494.33-.792.33h-.7c-.572 0-1.051-.43-1.116-1a.747.747 0 0 0-.829-.662.75.75 0 0 0-.662.829 2.617 2.617 0 0 0 2.184 2.293V17a.75.75 0 0 0 1.5 0v-.398a2.605 2.605 0 0 0 2.245-2.585 2.623 2.623 0 0 0-1.986-2.544l-1.608-.399a1.121 1.121 0 0 1-.851-1.089c0-.62.503-1.124 1.122-1.124Z"/></svg>
